layout/bottom-panel/widgets/battery/icons/battery-minus.svg

<svg enable-background="new 0 0 24.00 24.00" height="240" viewBox="0 0 24 24" width="240" xmlns="http://www.w3.org/2000/svg"><path d="m16.6664 3.99805c.7363 0 1.333.597 1.333 1.333v15.33395c0 .736-.5967 1.333-1.333 1.333h-9.33401c-.73631 0-1.33299-.597-1.33299-1.333v-15.33395c0-.736.59668-1.333 1.33299-1.333h1.66701l.0006-1.99805 5.9994-.00195v2zm-8.6664 8.00205v2h8v-2" fill="#f4f4f7" stroke-linejoin="round" stroke-width=".2"/></svg>

﻿<?xml version="1.0" encoding="utf-8"?>
<!DOCTYPE svg PUBLIC "-//W3C//DTD SVG 1.1//EN" "http://www.w3.org/Graphics/SVG/1.1/DTD/svg11.dtd">
<svg xmlns="http://www.w3.org/2000/svg" xmlns:xlink="http://www.w3.org/1999/xlink" version="1.1" baseProfile="full"
	width="240" height="240" viewBox="0 0 24.00 24.00" enable-background="new 0 0 24.00 24.00" xml:space="preserve">
	<path fill="#f4f4f7" fill-opacity="1" stroke-width="0.2" stroke-linejoin="round"
		d="M 16.6664,3.99805C 17.4027,3.99805 17.9994,4.59505 17.9994,5.33105L 17.9994,20.665C 17.9994,21.401 17.4027,21.998 16.6664,21.998L 7.33239,21.998C 6.59608,21.998 5.9994,21.401 5.9994,20.665L 5.9994,5.33105C 5.9994,4.59505 6.59608,3.99805 7.33239,3.99805L 8.9994,3.99805L 9,2L 14.9994,1.99805L 14.9994,3.99805L 16.6664,3.99805 Z M 8,12.0001L 8,14.0001L 16,14.0001L 16,12.0001" />
</svg>
